packages/core/src/svgs/ixo.svg

<svg width="24" height="24" viewBox="0 0 24 24" fill="none" xmlns="http://www.w3.org/2000/svg">
<g clip-path="url(#clip0_31_11950)">
<path d="M0 0H24V24H0V0Z" fill="#05204D"/>
<path fill-rule="evenodd" clip-rule="evenodd" d="M5.57136 8.57143C5.91235 8.57143 6.23938 8.43597 6.4805 8.19485C6.72161 7.95373 6.85707 7.62671 6.85707 7.28571C6.85707 6.94472 6.72161 6.61769 6.4805 6.37658C6.23938 6.13546 5.91235 6 5.57136 6C5.23037 6 4.90334 6.13546 4.66222 6.37658C4.4211 6.61769 4.28564 6.94472 4.28564 7.28571C4.28564 7.62671 4.4211 7.95373 4.66222 8.19485C4.90334 8.43597 5.23037 8.57143 5.57136 8.57143ZM6.85707 9H4.28564V15.8571H6.85707V9ZM7.28564 10.7657V9H8.9785L10.7142 10.7229L12.4285 9H14.1428V10.7186L12.4371 12.4371L14.1428 14.1343V15.8571H12.4071L10.7185 14.1771L9.05136 15.8571H7.28564V14.1686L8.98707 12.4586L7.28564 10.7657ZM20.9999 12.4286C20.9999 13.3379 20.6387 14.21 19.9957 14.8529C19.3527 15.4959 18.4807 15.8571 17.5714 15.8571C16.662 15.8571 15.79 15.4959 15.147 14.8529C14.504 14.21 14.1428 13.3379 14.1428 12.4286C14.1428 11.5193 14.504 10.6472 15.147 10.0042C15.79 9.36122 16.662 9 17.5714 9C18.4807 9 19.3527 9.36122 19.9957 10.0042C20.6387 10.6472 20.9999 11.5193 20.9999 12.4286ZM18.8571 12.4286C18.8571 12.7696 18.7216 13.0966 18.4805 13.3377C18.2394 13.5788 17.9124 13.7143 17.5714 13.7143C17.2304 13.7143 16.9033 13.5788 16.6622 13.3377C16.4211 13.0966 16.2856 12.7696 16.2856 12.4286C16.2856 12.0876 16.4211 11.7606 16.6622 11.5194C16.9033 11.2783 17.2304 11.1429 17.5714 11.1429C17.9124 11.1429 18.2394 11.2783 18.4805 11.5194C18.7216 11.7606 18.8571 12.0876 18.8571 12.4286Z" fill="#00D2FF"/>
</g>
<defs>
<clipPath id="clip0_31_11950">
<rect width="24" height="24" fill="white"/>
</clipPath>
</defs>
</svg>

<svg xmlns="http://www.w3.org/2000/svg" width="24" height="24" fill="none" viewBox="0 0 24 24"><g clip-path="url(#a)"><path fill="#05204D" d="M0 0h24v24H0z"/><path fill="#00D2FF" fill-rule="evenodd" d="M5.571 8.571a1.286 1.286 0 1 0 0-2.571 1.286 1.286 0 0 0 0 2.571M6.857 9H4.286v6.857h2.571zm.429 1.766V9h1.693l1.735 1.723L12.428 9h1.715v1.719l-1.706 1.718 1.706 1.697v1.723h-1.736l-1.688-1.68-1.668 1.68H7.286V14.17l1.701-1.71zM21 12.429a3.428 3.428 0 1 1-6.857 0 3.428 3.428 0 0 1 6.857 0m-2.143 0a1.286 1.286 0 1 1-2.571 0 1.286 1.286 0 0 1 2.571 0" clip-rule="evenodd"/></g><defs><clipPath id="a"><path fill="#fff" d="M0 0h24v24H0z"/></clipPath></defs></svg>
